X:6
T:Walzer Galopp (nach 'Hofmuri')  F (5letras transposed)
%%MIDI program 21
R:waltz
M:3/4
L:1/8
K:F transpose=3 %%MIDI gchordon
"F"C2F2G2 | A3cc2 | Bc BA GF | "C7"E3GG2 | C2E2G2 | B3dd2 | 
cd cB AG | "F"F3AA2 | C2F2G2 | A3cc2 | Bc BA GF | "C7"E3GG2 | 
C2E2G2 | Bd cB AG | "F"F2EF AG | F2z2z2 |: [M:2/4] "F"AA/2A/2 Ac | "C7"BA G>F | 
EG c>B | "F"BAF2 | AA/2A/2 Ac | "C7"BA G>F | EG c>E | "F"F2z2 :| 
% wz00687

